X: 1905
T: Swamp Road Hornpipe
B: australian traditional tunes wiki
M:4/4
L:1/8
R: Hornpipe
Q: 1/4=100
K:D
V:1 
"D"AFDF AFDF|"G"BEFGB2G2|"A7"cBAB AGFG|"D"A2B2A4|
AFDF AFDF|"G"BEFGB2G2|"A7"cBAc f2e2|"D"d2f2d4||
"A7"ecAc ecAc|"D"fdAdf2d2|"A7"gfed "Em"edcB|"D"dcBc "A7"A4|
"D"AFDF AFDF|"G"BEFGB2G2|"D"DEFD "A7"GECE|"D"D2F2D4||
% abcbook-tune_id 6342d53a117a82bfe6c3a743


% abcbook-boost 0
% abcbook-tablature 
% abcbook-transpose 
% abcbook-lastupdated 1665324391878
% abcbook-soundfonts 
% abcbook-repeats 1
% NFF Book 2018

